packages/bezier-icons/icons/tune.svg

<svg width="24" height="24" viewBox="0 0 24 24" fill="none" xmlns="http://www.w3.org/2000/svg">
<path fill-rule="evenodd" clip-rule="evenodd" d="M18.8162 4.00009C18.4022 2.83809 17.3022 2.00009 16.0002 2.00009C14.6982 2.00009 13.5992 2.83809 13.1852 4.00009H4.00021C3.44793 4.00009 3.00021 4.44781 3.00021 5.00009C3.00021 5.55238 3.44793 6.00009 4.00021 6.00009H13.1842C13.5992 7.16209 14.6982 8.00009 16.0002 8.00009C17.3022 8.00009 18.4022 7.16209 18.8162 6.00009H20.0002C20.5525 6.00009 21.0002 5.55238 21.0002 5.00009C21.0002 4.44781 20.5525 4.00009 20.0002 4.00009H18.8162ZM16.0002 6.00009C15.4492 6.00009 15.0002 5.55109 15.0002 5.00009C15.0002 4.44909 15.4492 4.00009 16.0002 4.00009C16.5512 4.00009 17.0002 4.44909 17.0002 5.00009C17.0002 5.55109 16.5512 6.00009 16.0002 6.00009Z" fill="#313234"/>
<path fill-rule="evenodd" clip-rule="evenodd" d="M8.00021 9.00009C6.69821 9.00009 5.59921 9.83809 5.18521 11.0001H4.00021C3.44793 11.0001 3.00021 11.4478 3.00021 12.0001C3.00021 12.5524 3.44793 13.0001 4.00021 13.0001H5.18421C5.59921 14.1621 6.69821 15.0001 8.00021 15.0001C9.30221 15.0001 10.4022 14.1621 10.8162 13.0001H20.0002C20.5525 13.0001 21.0002 12.5524 21.0002 12.0001C21.0002 11.4478 20.5525 11.0001 20.0002 11.0001H10.8162C10.4022 9.83809 9.30221 9.00009 8.00021 9.00009ZM8.00021 13.0001C7.44921 13.0001 7.00021 12.5511 7.00021 12.0001C7.00021 11.4491 7.44921 11.0001 8.00021 11.0001C8.55121 11.0001 9.00021 11.4491 9.00021 12.0001C9.00021 12.5511 8.55121 13.0001 8.00021 13.0001Z" fill="#313234"/>
<path fill-rule="evenodd" clip-rule="evenodd" d="M13.1852 18.0001C13.5992 16.8381 14.6982 16.0001 16.0002 16.0001C17.3022 16.0001 18.4022 16.8381 18.8162 18.0001H20.0002C20.5525 18.0001 21.0002 18.4478 21.0002 19.0001C21.0002 19.5524 20.5525 20.0001 20.0002 20.0001H18.8162C18.4022 21.1621 17.3022 22.0001 16.0002 22.0001C14.6982 22.0001 13.5992 21.1621 13.1842 20.0001H4.00021C3.44793 20.0001 3.00021 19.5524 3.00021 19.0001C3.00021 18.4478 3.44793 18.0001 4.00021 18.0001H13.1852ZM15.0002 19.0001C15.0002 19.5511 15.4492 20.0001 16.0002 20.0001C16.5512 20.0001 17.0002 19.5511 17.0002 19.0001C17.0002 18.4491 16.5512 18.0001 16.0002 18.0001C15.4492 18.0001 15.0002 18.4491 15.0002 19.0001Z" fill="#313234"/>
</svg>

<svg xmlns="http://www.w3.org/2000/svg" width="24" height="24" fill="none" viewBox="0 0 24 24"><path fill="#313234" fill-rule="evenodd" d="M18.816 4A2.995 2.995 0 0 0 16 2a2.99 2.99 0 0 0-2.815 2H4a1 1 0 0 0 0 2h9.184A3 3 0 0 0 16 8a2.995 2.995 0 0 0 2.816-2H20a1 1 0 1 0 0-2zM16 6c-.55 0-1-.449-1-1s.45-1 1-1c.551 0 1 .45 1 1 0 .551-.449 1-1 1M8 9a2.99 2.99 0 0 0-2.815 2H4a1 1 0 1 0 0 2h1.184A3 3 0 0 0 8 15a2.995 2.995 0 0 0 2.816-2H20a1 1 0 1 0 0-2h-9.184A2.995 2.995 0 0 0 8 9m0 4c-.55 0-1-.449-1-1s.45-1 1-1c.551 0 1 .45 1 1 0 .551-.449 1-1 1M13.185 18A2.99 2.99 0 0 1 16 16c1.302 0 2.402.838 2.816 2H20a1 1 0 1 1 0 2h-1.184A2.995 2.995 0 0 1 16 22a3 3 0 0 1-2.816-2H4a1 1 0 1 1 0-2zM15 19c0 .551.45 1 1 1 .551 0 1-.449 1-1s-.449-1-1-1-1 .45-1 1" clip-rule="evenodd"/></svg>
